svg/u1f301.svg

<svg viewBox="0 0 128 128" xmlns="http://www.w3.org/2000/svg">
  <path d="M116.62,124.26H11.32c-4.15,0-7.52-3.37-7.52-7.52V11.44c0-4.15,3.37-7.52,7.52-7.52h105.3 c4.15,0,7.52,3.37,7.52,7.52v105.3C124.15,120.89,120.78,124.26,116.62,124.26z" fill="#AED0D7"/>
  <path d="M116.62,124.26H11.32c-4.15,0-7.52-3.37-7.52-7.52V11.44c0-4.15,3.37-7.52,7.52-7.52h105.3 c4.15,0,7.52,3.37,7.52,7.52v105.3C124.15,120.89,120.78,124.26,116.62,124.26z" fill="#AED0D7"/>
  <radialGradient id="SVGID_1_" cx="77.8446" cy="113.1856" gradientTransform="matrix(-0.0349 -0.9994 1.9051 -0.0666 -135.0695 198.5157)" gradientUnits="userSpaceOnUse" r="101.8449">
    <stop offset="0.5533" stop-color="#92BDCC"/>
    <stop offset="0.6221" stop-color="#B9D5DE"/>
    <stop offset="0.7318" stop-color="#FFFFFF"/>
  </radialGradient>
  <path d="M3.82,46.32L3.75,69.45l120.4-7.31l0.16-41.9c0,0-5.59-4.5-14.28-1.86s-10.4,7.91-10.4,7.91 s-8.65-2.84-17.69,1.09C70.14,32.5,65.48,43.51,65.48,43.51s-11.79-4.04-25.14-3.88C21.45,39.87,3.82,46.32,3.82,46.32z" fill="url(#SVGID_1_)"/>
  <radialGradient id="SVGID_2_" cx="66.4731" cy="139.576" fx="63.6837" fy="139.8067" gradientTransform="matrix(0.1098 -0.994 1.9081 0.2107 -207.1499 176.2323)" gradientUnits="userSpaceOnUse" r="86.3946">
    <stop offset="0.5929" stop-color="#A1C3CE"/>
    <stop offset="0.61" stop-color="#A8C8D2"/>
    <stop offset="0.7078" stop-color="#CEE0E5"/>
    <stop offset="0.7986" stop-color="#E9F1F3"/>
    <stop offset="0.8789" stop-color="#F9FBFC"/>
    <stop offset="0.9402" stop-color="#FFFFFF"/>
  </radialGradient>
  <path d="M42.23,59.4c0,0,8.03-3.78,18.97-4.23c7-0.29,15.32,2.33,15.32,2.33s6.86-3.79,24.37-2.63 c17.51,1.17,23.26,4.83,23.26,4.83l0.01,39.24L3.78,95.6l0.02-36.5c0,0,9.99-2.18,22.68-1.75C36.39,57.7,42.23,59.4,42.23,59.4z" fill="url(#SVGID_2_)"/>
  <path d="M124.17,61.85c-0.27-0.13-6.63-3.13-10.93-5.94c-3.82-2.49-11.73-8.67-21.46-17.89 c-7.92-7.51-14.52-18.57-14.8-19.04l2.06-1.22c0.07,0.11,6.72,11.25,14.39,18.52c9.61,9.11,17.38,15.18,21.12,17.62 c4.16,2.71,9.53,5.2,9.59,5.23L124.17,61.85z" fill="#B11F2B"/>
  <polygon points="106.02,99.6 104.02,99.58 104.3,48.39 106.3,48.41 " fill="#B11F2B"/>
  <rect height="2" fill="#B11F2B" transform="matrix(1.953121e-03 -1 1 1.953121e-03 48.0649 176.9709)" width="52.27" x="86.55" y="63.41"/>
  <rect height="2" fill="#B11F2B" transform="matrix(4.882754e-03 -1 1 4.882754e-03 50.8286 188.6902)" width="20.36" x="110.04" y="67.81"/>
  <rect height="2" fill="#B11F2B" transform="matrix(0.0205 -0.9998 0.9998 0.0205 -50.8126 115.3084)" width="17.95" x="24.47" y="82.59"/>
  <rect height="2" fill="#B11F2B" transform="matrix(0.0205 -0.9998 0.9998 0.0205 -55.8449 99.1094)" width="27.34" x="8.99" y="77.06"/>
  <polygon points="43.65,98.34 41.65,98.32 42.02,53.41 44.02,53.43 " fill="#B11F2B"/>
  <polygon points="53.78,104.01 51.78,103.99 51.96,64.38 53.96,64.4 " fill="#B11F2B"/>
  <rect height="69.59" fill="#B11F2B" width="2" x="61.01" y="37.55"/>
  <rect height="49.87" fill="#B11F2B" transform="matrix(1 -2.604489e-03 2.604489e-03 1 -0.1984 0.1832)" width="2" x="69.26" y="51.32"/>
  <path d="M124.18,48.83c-0.06-0.04-6.68-4.94-12.69-10.12c-4.04-3.48-8.67-8.24-11.26-11.2 c-4.31-4.92-6.88-8.68-6.99-8.84l1.99-1.35c0.03,0.04,2.6,3.81,6.81,8.61c2.54,2.89,7.07,7.56,11.02,10.96 c5.94,5.11,11.08,8.87,11.14,8.91L124.18,48.83z" fill="#FF2D26"/>
  <path d="M78.43,17.02c0,0,4.7-0.13,4.73-0.04c0.12,0.43,0.18,78.52,0.18,78.52l-7.91,3.21L78.43,17.02z" fill="#B01522"/>
  <path d="M93.41,17.13c0,0,4.13-0.07,4.21,0c0.42,0.32,0.28,25.22,0.28,25.22h0.83v55.54l-4.91-5.19 L93.41,17.13z" fill="#B01522"/>
  <path d="M95.86,42.53h-1.39l-0.04-25.41l-4.23-0.06l-0.02,2.78c0,0-1.58,1.59-5.01,1.69 c-3.43,0.09-4.82-2.13-4.82-2.13L80.32,17l-5.16,0.04l-0.06,25.49l-0.98,0.06l0.05,7.27V92.7l0.09,16.68l6.4-4.91l-0.09-33.74 l9.09-0.09v31.16l6.21,0.28V49.86V42.53z M80.29,29c0.19-0.37,9.74-0.09,9.74-0.09l-0.09,13.63h-9.64V29z M89.93,63.21h-9.64V49.86 h9.64V63.21z" fill="#FF2D26"/>
  <path d="M95,17.09c0,0,0.32-3.23-1.65-3.2c-1.83,0.02-1.45,3.24-1.45,3.24s0.78,0.02,1.66,0 C94.56,17.11,95,17.09,95,17.09z" fill="#DD0C29"/>
  <path d="M79.48,13.84c-1.78,0.02-1.49,3.22-1.49,3.22s0.81-0.02,1.58-0.02c0.76,0,1.49-0.04,1.49-0.04 S81.38,13.82,79.48,13.84z" fill="#DD0C29"/>
  <path d="M3.78,84.4l0.03-2.53c0.06-0.01,8.82-1.45,11.5-2.34c0.31-0.1,0.84-0.25,1.55-0.46 c5.79-1.65,23.41-6.67,43.05-20.31c21.63-15.02,31.07-40.17,31.17-40.42l2.25,0.83c-0.09,0.26-9.78,26.1-32.05,41.57 C41.31,74.6,23.4,79.7,17.51,81.37c-0.67,0.19-1.15,0.33-1.45,0.43C13.23,82.75,4.03,84.35,3.78,84.4z" fill="#FF2D26"/>
  <path d="M3.76,70.86v-2.35c0.17,0,15.7-0.17,39.12-16.72c8.67-6.12,20.59-16.75,25.52-22.74 c5.64-6.86,5.89-8.53,6.64-10.27c0,0,0.31-1.55,1.17-1.74c0.21-0.05,1.71-0.03,1.71-0.03c-0.16,0.55-1.8,6.43-7.66,13.56 c-5.03,6.12-17.18,16.96-25.98,23.18C20.16,70.79,4.49,70.86,3.76,70.86z" fill="#B11F2B"/>
  <radialGradient id="SVGID_3_" cx="68.785" cy="149.2516" gradientTransform="matrix(-7.662610e-03 -1 2.0753 -0.0159 -240.4315 220.4081)" gradientUnits="userSpaceOnUse" r="135.8897">
    <stop offset="0.1314" stop-color="#FFFFFF"/>
    <stop offset="0.8478" stop-color="#FFFFFF" stop-opacity="0"/>
  </radialGradient>
  <path d="M116.62,124.26H11.32c-4.15,0-7.52-3.37-7.52-7.52V11.44c0-4.15,3.37-7.52,7.52-7.52h105.3 c4.15,0,7.52,3.37,7.52,7.52v105.3C124.15,120.89,120.78,124.26,116.62,124.26z" fill="url(#SVGID_3_)"/>
  <radialGradient id="SVGID_4_" cx="17.72" cy="130.7944" gradientTransform="matrix(0.164 -0.9865 1.3475 0.224 -161.4365 118.9758)" gradientUnits="userSpaceOnUse" r="81.6348">
    <stop offset="0.1577" stop-color="#C0D0D5"/>
    <stop offset="0.5784" stop-color="#FAFBFB"/>
    <stop offset="1" stop-color="#FAFBFB" stop-opacity="0"/>
  </radialGradient>
  <path d="M99.52,124.26h-88.2c-4.15,0-7.52-3.37-7.52-7.52L3.76,76.33c0,0,6.22-3.77,16.68-0.83 C30.9,78.43,36.95,87.6,36.95,87.6s7.03-5.97,18.71-3.12c15.05,3.67,23.49,22.2,23.49,22.2L99.52,124.26z" fill="url(#SVGID_4_)"/>
  <radialGradient id="SVGID_5_" cx="70.553" cy="51.2306" gradientUnits="userSpaceOnUse" r="79.8518">
    <stop offset="0.0523" stop-color="#FAFBFB" stop-opacity="0"/>
    <stop offset="0.5714" stop-color="#FAFBFB"/>
    <stop offset="0.7181" stop-color="#EEF2F3"/>
    <stop offset="0.9192" stop-color="#D6E1E3"/>
  </radialGradient>
  <path d="M124.15,73.21v43.53c0,4.15-3.37,7.52-7.52,7.52h-83.5c0,0,4.13-16.53,20.28-26.29 c14.17-8.57,24.27-5.42,24.27-5.42s9.43-16.02,24.04-20.03S124.15,73.21,124.15,73.21z" fill="url(#SVGID_5_)"/>
</svg>

<svg viewBox="0 0 128 128" xmlns="http://www.w3.org/2000/svg">
  <defs>
    <radialGradient id="SVGID_1_" cx="-115.829143" cy="38.73874" gradientTransform="matrix(-0.0349 -0.9994 1.9051 -0.0666 0 0)" gradientUnits="userSpaceOnUse" r="101.8449">
      <stop offset="0.5533" stop-color="#92BDCC"/>
      <stop offset="0.6221" stop-color="#B9D5DE"/>
      <stop offset="0.7318" stop-color="#FFFFFF"/>
    </radialGradient>
    <radialGradient id="SVGID_2_" cx="-131.421501" cy="42.400237" fx="-134.210901" fy="42.630937" gradientTransform="matrix(0.1098 -0.994 1.9081 0.2107 0 0)" gradientUnits="userSpaceOnUse" r="86.3946">
      <stop offset="0.5929" stop-color="#A1C3CE"/>
      <stop offset="0.61" stop-color="#A8C8D2"/>
      <stop offset="0.7078" stop-color="#CEE0E5"/>
      <stop offset="0.7986" stop-color="#E9F1F3"/>
      <stop offset="0.8789" stop-color="#F9FBFC"/>
      <stop offset="0.9402" stop-color="#FFFFFF"/>
    </radialGradient>
    <radialGradient id="SVGID_3_" cx="-149.768193" cy="32.590786" gradientTransform="matrix(-0.007663 -1 2.0753 -0.0159 0 0)" gradientUnits="userSpaceOnUse" r="135.8897">
      <stop offset="0.1314" stop-color="#FFFFFF"/>
      <stop offset="0.8478" stop-color="#FFFFFF" stop-opacity="0"/>
    </radialGradient>
    <radialGradient id="SVGID_4_" cx="-126.112526" cy="28.495353" gradientTransform="matrix(0.164 -0.9865 1.3475 0.224 0 0)" gradientUnits="userSpaceOnUse" r="81.6348">
      <stop offset="0.1577" stop-color="#C0D0D5"/>
      <stop offset="0.5784" stop-color="#FAFBFB"/>
      <stop offset="1" stop-color="#FAFBFB" stop-opacity="0"/>
    </radialGradient>
    <radialGradient id="SVGID_5_" cx="70.553" cy="51.2306" gradientUnits="userSpaceOnUse" r="79.8518">
      <stop offset="0.0523" stop-color="#FAFBFB" stop-opacity="0"/>
      <stop offset="0.5714" stop-color="#FAFBFB"/>
      <stop offset="0.7181" stop-color="#EEF2F3"/>
      <stop offset="0.9192" stop-color="#D6E1E3"/>
    </radialGradient>
  </defs>
  <path d="M116.62,124.26 L11.32,124.26 C7.17,124.26 3.8,120.89 3.8,116.74 L3.8,11.44 C3.8,7.29 7.17,3.92 11.32,3.92 L116.62,3.92 C120.77,3.92 124.14,7.29 124.14,11.44 L124.14,116.74 C124.15,120.89 120.78,124.26 116.62,124.26 Z" fill="#AED0D7"/>
  <path d="M116.62,124.26 L11.32,124.26 C7.17,124.26 3.8,120.89 3.8,116.74 L3.8,11.44 C3.8,7.29 7.17,3.92 11.32,3.92 L116.62,3.92 C120.77,3.92 124.14,7.29 124.14,11.44 L124.14,116.74 C124.15,120.89 120.78,124.26 116.62,124.26 Z" fill="#AED0D7"/>
  <path d="M3.82,46.32 L3.75,69.45 L124.15,62.14 L124.31,20.24 C124.31,20.24 118.72,15.74 110.03,18.38 C101.34,21.02 99.63,26.29 99.63,26.29 C99.63,26.29 90.98,23.45 81.94,27.38 C70.14,32.5 65.48,43.51 65.48,43.51 C65.48,43.51 53.69,39.47 40.34,39.63 C21.45,39.87 3.82,46.32 3.82,46.32 Z" fill="url(#SVGID_1_)"/>
  <path d="M42.23,59.4 C42.23,59.4 50.26,55.62 61.2,55.17 C68.2,54.88 76.52,57.5 76.52,57.5 C76.52,57.5 83.38,53.71 100.89,54.87 C118.4,56.04 124.15,59.7 124.15,59.7 L124.16,98.94 L3.78,95.6 L3.8,59.1 C3.8,59.1 13.79,56.92 26.48,57.35 C36.39,57.7 42.23,59.4 42.23,59.4 Z" fill="url(#SVGID_2_)"/>
  <path d="M124.17,61.85 C123.9,61.72 117.54,58.72 113.24,55.91 C109.42,53.42 101.51,47.24 91.78,38.02 C83.86,30.51 77.26,19.45 76.98,18.98 L79.04,17.76 C79.11,17.87 85.76,29.01 93.43,36.28 C103.04,45.39 110.81,51.46 114.55,53.9 C118.71,56.61 124.08,59.1 124.14,59.13 L124.17,61.85 Z" fill="#B11F2B"/>
  <path d="M106.02,99.6 L104.02,99.58 L104.3,48.39 L106.3,48.41 Z" fill="#B11F2B"/>
  <path d="M111.644,90.545 L111.746,38.275 L113.746,38.279 L113.644,90.549 L111.644,90.545 Z" fill="#B11F2B"/>
  <path d="M119.176,78.981 L119.275,58.621 L121.275,58.631 L121.176,78.991 L119.176,78.981 Z" fill="#B11F2B"/>
  <path d="M32.263,92.536 L32.63,74.59 L34.63,74.631 L34.262,92.577 L32.263,92.536 Z" fill="#B11F2B"/>
  <path d="M21.384,91.701 L21.944,64.366 L23.944,64.407 L23.384,91.742 L21.384,91.701 Z" fill="#B11F2B"/>
  <path d="M43.65,98.34 L41.65,98.32 L42.02,53.41 L44.02,53.43 Z" fill="#B11F2B"/>
  <path d="M53.78,104.01 L51.78,103.99 L51.96,64.38 L53.96,64.4 Z" fill="#B11F2B"/>
  <path d="M61.01,37.55 L63.01,37.55 L63.01,107.14 L61.01,107.14 L61.01,37.55 Z" fill="#B11F2B"/>
  <path d="M69.195,51.323 L71.195,51.318 L71.325,101.188 L69.325,101.193 L69.195,51.323 Z" fill="#B11F2B"/>
  <path d="M124.18,48.83 C124.12,48.79 117.5,43.89 111.49,38.71 C107.45,35.23 102.82,30.47 100.23,27.51 C95.92,22.59 93.35,18.83 93.24,18.67 L95.23,17.32 C95.26,17.36 97.83,21.13 102.04,25.93 C104.58,28.82 109.11,33.49 113.06,36.89 C119,42 124.14,45.76 124.2,45.8 L124.18,48.83 Z" fill="#FF2D26"/>
  <path d="M78.43,17.02 C78.43,17.02 83.13,16.89 83.16,16.98 C83.28,17.41 83.34,95.5 83.34,95.5 L75.43,98.71 L78.43,17.02 Z" fill="#B01522"/>
  <path d="M93.41,17.13 C93.41,17.13 97.54,17.06 97.62,17.13 C98.04,17.45 97.9,42.35 97.9,42.35 L98.73,42.35 L98.73,97.89 L93.82,92.7 L93.41,17.13 Z" fill="#B01522"/>
  <path d="M95.86,42.53 L94.47,42.53 L94.43,17.12 L90.2,17.06 L90.18,19.84 C90.18,19.84 88.6,21.43 85.17,21.53 C81.74,21.62 80.35,19.4 80.35,19.4 L80.32,17 L75.16,17.04 L75.1,42.53 L74.12,42.59 L74.17,49.86 L74.17,92.7 L74.26,109.38 L80.66,104.47 L80.57,70.73 L89.66,70.64 L89.66,101.8 L95.87,102.08 L95.87,49.86 L95.87,42.53 Z M80.29,29 C80.48,28.63 90.03,28.91 90.03,28.91 L89.94,42.54 L80.3,42.54 L80.3,29 Z M89.93,63.21 L80.29,63.21 L80.29,49.86 L89.93,49.86 L89.93,63.21 Z" fill="#FF2D26"/>
  <path d="M95,17.09 C95,17.09 95.32,13.86 93.35,13.89 C91.52,13.91 91.9,17.13 91.9,17.13 C91.9,17.13 92.68,17.15 93.56,17.13 C94.56,17.11 95,17.09 95,17.09 Z" fill="#DD0C29"/>
  <path d="M79.48,13.84 C77.7,13.86 77.99,17.06 77.99,17.06 C77.99,17.06 78.8,17.04 79.57,17.04 C80.33,17.04 81.06,17 81.06,17 C81.06,17 81.38,13.82 79.48,13.84 Z" fill="#DD0C29"/>
  <path d="M3.78,84.4 L3.81,81.87 C3.87,81.86 12.63,80.42 15.31,79.53 C15.62,79.43 16.15,79.28 16.86,79.07 C22.65,77.42 40.27,72.4 59.91,58.76 C81.54,43.74 90.98,18.59 91.08,18.34 L93.33,19.17 C93.24,19.43 83.55,45.27 61.28,60.74 C41.31,74.6 23.4,79.7 17.51,81.37 C16.84,81.56 16.36,81.7 16.06,81.8 C13.23,82.75 4.03,84.35 3.78,84.4 Z" fill="#FF2D26"/>
  <path d="M3.76,70.86 L3.76,68.51 C3.93,68.51 19.46,68.34 42.88,51.79 C51.55,45.67 63.47,35.04 68.4,29.05 C74.04,22.19 74.29,20.52 75.04,18.78 C75.04,18.78 75.35,17.23 76.21,17.04 C76.42,16.99 77.92,17.01 77.92,17.01 C77.76,17.56 76.12,23.44 70.26,30.57 C65.23,36.69 53.08,47.53 44.28,53.75 C20.16,70.79 4.49,70.86 3.76,70.86 Z" fill="#B11F2B"/>
  <path d="M116.62,124.26 L11.32,124.26 C7.17,124.26 3.8,120.89 3.8,116.74 L3.8,11.44 C3.8,7.29 7.17,3.92 11.32,3.92 L116.62,3.92 C120.77,3.92 124.14,7.29 124.14,11.44 L124.14,116.74 C124.15,120.89 120.78,124.26 116.62,124.26 Z" fill="url(#SVGID_3_)"/>
  <path d="M99.52,124.26 L11.32,124.26 C7.17,124.26 3.8,120.89 3.8,116.74 L3.76,76.33 C3.76,76.33 9.98,72.56 20.44,75.5 C30.9,78.43 36.95,87.6 36.95,87.6 C36.95,87.6 43.98,81.63 55.66,84.48 C70.71,88.15 79.15,106.68 79.15,106.68 L99.52,124.26 Z" fill="url(#SVGID_4_)"/>
  <path d="M124.15,73.21 L124.15,116.74 C124.15,120.89 120.78,124.26 116.63,124.26 L33.13,124.26 C33.13,124.26 37.26,107.73 53.41,97.97 C67.58,89.4 77.68,92.55 77.68,92.55 C77.68,92.55 87.11,76.53 101.72,72.52 C116.33,68.51 124.15,73.21 124.15,73.21 Z" fill="url(#SVGID_5_)"/>
</svg>
